X: 1
T: Charles O'Connor
M: 6/8
L: 1/8
R: jig
K: Dmaj
A|d3 d2A|BAG FGA|Bcd ecA|dfa a2g|
faf Bcd|ege ABc|dcB AFA|d3 D2:|
|:B|ABA FGA|BGB AFA|D2A FDA|GEe c2A|
faf faf|faf fdB|efe efe|efe ecA|
dcB AFA|FGA f2e|dcB AFA|d3 D2:|
